svgs/sharp-regular/comet.svg

<svg xmlns="http://www.w3.org/2000/svg" viewBox="0 0 512 512"><!--! Font Awesome Pro 7.1.0 by @fontawesome - https://fontawesome.com License - https://fontawesome.com/license (Commercial License) Copyright 2025 Fonticons, Inc. --><path fill="currentColor" d="M304 16C287.4 25.6 219.8 64.7 101.3 133.4 38.6 169.7 0 236.6 0 309 0 421.1 90.9 512 203 512 275.4 512 342.3 473.4 378.6 410.7 447.3 292.2 486.4 224.6 496 208l-7.5 .6-50.5 3.9-1.9 .1c8.5-23.8 26.9-75.2 55.1-154.2L512 0c-31.2 11.2-85.6 30.6-163.1 58.3l-49.5 17.7 .1-1.9 3.9-50.5 .6-7.5zM125.3 174.9l123.8-71.7-3.3 42.8c38.5-13.8 100.8-36 186.9-66.7-30.7 86-53 148.3-66.7 186.9l42.8-3.3-71.7 123.8c-27.7 47.9-78.8 77.3-134.1 77.3-85.6 0-155-69.4-155-155 0-55.3 29.5-106.4 77.3-134.1zm117.3 91l-34.6-69.1-34.6 69.1-77.4 11.1 56 53.8-13.2 76 69.2-35.9 69.2 35.9-13.2-76 56-53.8-77.4-11.1z"/></svg>

<svg xmlns="http://www.w3.org/2000/svg" viewBox="0 0 512 512"><!--! Font Awesome Pro 6.7.2 by @fontawesome - https://fontawesome.com License - https://fontawesome.com/license (Commercial License) Copyright 2024 Fonticons, Inc. --><path d="M304 16L253.6 45.2 101.3 133.4C38.6 169.7 0 236.6 0 309C0 421.1 90.9 512 203 512c72.4 0 139.4-38.6 175.7-101.3l88.2-152.3L496 208l-7.5 .6L438 212.5l-1.9 .1 17.7-49.5L491.1 58.4 512 0 453.6 20.9 348.9 58.3 299.4 75.9l.1-1.9 3.9-50.5L304 16zM125.3 174.9l123.8-71.7L245.9 146l69.7-24.9L432.7 79.3 390.9 196.5 366 266.1l42.8-3.3L337.1 386.7C309.4 434.5 258.3 464 203 464c-85.6 0-155-69.4-155-155c0-55.3 29.5-106.4 77.3-134.1zm117.3 91L208 196.8l-34.6 69.1L96 277l56 53.8-13.2 76L208 370.9l69.2 35.9-13.2-76L320 277l-77.4-11.1z"/></svg>
